X:273
T:Man in the Moon
S:Lester Bailey on facebook 2012-8-26
M:3/4
L:1/8
K:D
A2 |\
d3e d2 | c2 B2 A2 | d2e2f2 | g4fg |\
a4g2 | f2g2e2 | d3 e fe | d2 cB A2 |
d3e d2 | c2 B2 A2 | d2e2f2 | g4fg |\
a4g2 | f2g2e2 | d3 e fe | d4 |]
fg |\
a6 | a6 | g2e2f2 | g6 | f3 efg |\
a2f2d2 | B2c2d2 | e2 cB A2 |
d3e d2 | c2 B2 A2 | d2e2f2 | g4fg |\
a4g2 | f2g2e2 | d3 e fe | d4 |]
